**kern	**kern	**dynam
*part1	*part1	*part1
*staff2	*staff1	*
*I"Piano	*	*
*clefF4	*clefG2	*
*k[f#c#]	*k[f#c#]	*
=1	=1	=1
!	!	!LO:DY:a
2A; 2e	2g; 2cc#	mf
8r	8r	.
8r	8r	.
=	=	=
!	!	!LO:DY:a
2.D	8r	p
.	8AL	.
.	8dJ	.
.	8fnL	.
.	8d	.
.	8AJ	.
=	=	=
2.Cn	8r	.
.	8B-XL	.
.	8eJ	.
.	8gL	.
.	8e	.
.	8B-J	.
=	=	=
4.Fn	8r	.
.	8AL	.
.	8cnJ	.
4.D	8fnL	.
.	8Bn	.
.	8GJ	.
=	=	=
4.E	8r	.
.	8GL	.
.	8cnJ	.
4.Cn	8eL	.
.	8c	.
.	8GJ	.
=	=	=
2.GG	8r	.
.	8GL	.
.	8B-XJ	.
.	8dL	.
.	8B-	.
.	8GJ	.
=	=	=
4.BB-X	8gL	.
.	8d	.
.	8GJ	.
4.BBn	8fnL	.
.	8d	.
.	8GJ	.
=	=	=
*-	*-	*-
!!!system-decoration: {(s1,s2)}
